svg/color/spoton.svg

<svg width="40" height="40" viewBox="0 0 40 40" fill="none" xmlns="http://www.w3.org/2000/svg">
<g clip-path="url(#clip0_821_4057)">
<path d="M20 0C31.0457 0 40 8.9543 40 20C40 31.0457 31.0457 40 20 40C8.95431 40 7.90517e-06 31.0457 0 20C6.58765e-07 8.95431 8.95431 1.97595e-06 20 0Z" fill="#D2F7DF"/>
<path d="M26 6C30.4183 6 34 9.58172 34 14V26C34 30.4183 30.4183 34 26 34H14C9.58172 34 6 30.4183 6 26V14C6 9.58172 9.58172 6 14 6H26Z" fill="#1ED760"/>
<g clip-path="url(#clip1_821_4057)">
<path d="M20 10C14.5 10 10 14.5 10 20C10 25.5 14.5 30 20 30C25.5 30 30 25.5 30 20C30 14.5 25.55 10 20 10ZM24.6008 24.45C24.4008 24.7492 24.0508 24.85 23.75 24.65C21.4 23.2 18.45 22.8992 14.9492 23.6992C14.6008 23.8008 14.3 23.55 14.2 23.25C14.1 22.8992 14.35 22.6 14.65 22.5C18.45 21.6492 21.75 22 24.35 23.6C24.7 23.75 24.7492 24.1492 24.6008 24.45ZM25.8008 21.7C25.55 22.05 25.1 22.2 24.7492 21.95C22.05 20.3 17.95 19.8 14.8 20.8C14.4008 20.9 13.95 20.7 13.85 20.3C13.75 19.9 13.95 19.4492 14.35 19.3492C18 18.25 22.5 18.8008 25.6 20.7C25.9008 20.8508 26.05 21.35 25.8008 21.7ZM25.9008 18.9C22.7 17 17.35 16.8 14.3 17.7508C13.8 17.9 13.3 17.6 13.15 17.15C13 16.6492 13.3 16.15 13.75 15.9992C17.3 14.9492 23.15 15.1492 26.8508 17.35C27.3 17.6 27.45 18.2 27.2 18.65C26.9508 19.0008 26.35 19.1492 25.9008 18.9Z" fill="white"/>
</g>
</g>
<defs>
<clipPath id="clip0_821_4057">
<rect width="40" height="40" fill="white"/>
</clipPath>
<clipPath id="clip1_821_4057">
<rect width="20" height="20" fill="white" transform="translate(10 10)"/>
</clipPath>
</defs>
</svg>

<svg xmlns="http://www.w3.org/2000/svg" width="40" height="40" fill="none" viewBox="0 0 40 40"><g clip-path="url(#spoton_svg-a)"><path fill="#D2F7DF" d="M20 0c11.046 0 20 8.954 20 20s-8.954 20-20 20S0 31.046 0 20 8.954 0 20 0"/><path fill="#1ED760" d="M26 6a8 8 0 0 1 8 8v12a8 8 0 0 1-8 8H14a8 8 0 0 1-8-8V14a8 8 0 0 1 8-8z"/><g clip-path="url(#spoton_svg-b)"><path fill="#fff" d="M20 10c-5.5 0-10 4.5-10 10s4.5 10 10 10 10-4.5 10-10-4.45-10-10-10m4.6 14.45c-.2.3-.55.4-.85.2-2.35-1.45-5.3-1.75-8.8-.95-.35.1-.65-.15-.75-.45-.1-.35.15-.65.45-.75 3.8-.85 7.1-.5 9.7 1.1.35.15.4.55.25.85m1.2-2.75c-.25.35-.7.5-1.05.25-2.7-1.65-6.8-2.15-9.95-1.15-.4.1-.85-.1-.95-.5s.1-.85.5-.95c3.65-1.1 8.15-.55 11.25 1.35.3.15.45.65.2 1m.1-2.8c-3.2-1.9-8.55-2.1-11.6-1.15-.5.15-1-.15-1.15-.6-.15-.5.15-1 .6-1.15 3.55-1.05 9.4-.85 13.1 1.35.45.25.6.85.35 1.3-.25.35-.85.5-1.3.25"/></g></g><defs><clipPath id="spoton_svg-a"><path fill="#fff" d="M0 0h40v40H0z"/></clipPath><clipPath id="spoton_svg-b"><path fill="#fff" d="M10 10h20v20H10z"/></clipPath></defs></svg>
